X: 1
T: Catharsis
C: Amy Cann 1989
B: Portland Collection V.1
Z: 2019 John Chambers <jc:trillian.mit.edu>
M: C|
L: 1/8
K: Gm
%%slurgraces no
%%graceslurs no
|:\
"Gm"[DG,]GGF DGGF | DFGA B{A}G "F"AF | "Gm"DFGF DGGF | "Cm"DCB,C "Dm"B,A,B,A, |
"Gm"[DG,]GGF DGGF | DFGA B{A}G Ac | dcBc BAGF |1 "Dm"DGGF "Gm"G2G2 :|2 "Dm"DGGF GABc ||
|:\
"Gm"dGGc GGBG | GAGG GABc | "F"dFFc FFBF | FAFF GABc |
"Eb"dEEc EEBE | EAEE GABc | "Gm"dcBc BAGF |1 "Dm"DGGF "Gm"GABc :|2 "Dm"DCB,C DCDC |]
